packages/core/src/svgs/tokens/branded/RMRK.svg

<svg width="24" height="24" viewBox="0 0 24 24" fill="none" xmlns="http://www.w3.org/2000/svg">
<path d="M7.2947 12.9288H7.03466C6.93249 12.6966 6.77925 12.5294 6.53314 12.4644C6.76068 12.4087 7.09967 12.2229 7.20647 12H7.46651C7.55733 11.7697 7.58918 11.5204 7.55918 11.2747C7.52918 11.0289 7.43826 10.7947 7.2947 10.593C7.06251 10.3144 6.66781 10.1425 6.0595 10.1425H4.13704V12H3.83057V12.9288H4.13704V13.8574H5.06577V12.9288H5.74838C6.04556 12.9288 6.15236 13.1795 6.33346 13.5974L6.44491 13.8528H7.66619C7.58724 13.6717 7.49437 13.4349 7.42007 13.2398L7.2947 12.9288ZM5.06577 11.0713H5.99449C6.19416 11.0713 6.3799 11.336 6.3799 11.5357C6.3799 11.7353 6.19416 12 5.98984 12H5.06577V11.0713ZM15.7971 12.9288H16.0572L16.2104 13.3002C16.28 13.486 16.3637 13.6903 16.4334 13.8528H15.2074L15.096 13.5974C14.9195 13.1795 14.8126 12.9288 14.5155 12.9288H13.8886V13.8574H12.9598V12.9288H12.6534V12H12.9598V10.1425H14.822C15.6253 10.1425 16.3219 10.5559 16.3079 11.4057C16.3079 11.5264 16.28 11.8886 16.2337 12H15.969C15.8158 12.3158 15.6114 12.3854 15.2957 12.4644C15.5464 12.5294 15.6996 12.6966 15.7971 12.9288ZM14.757 11.0713H13.8886V12H14.757C14.9566 12 15.1424 11.7353 15.1424 11.5357C15.1424 11.336 14.9566 11.0713 14.757 11.0713ZM20.1157 13.0076L19.8418 12.9288L20.515 13.8574H19.2009L18.5415 12.9288H18.8108L18.4533 12.4504L17.9843 12.9288H17.6036V13.8574H16.6748V12.9288H16.9581V12H16.6748V10.1425H17.6036V11.6099L19.0523 10.1425H20.4779L18.9038 11.7678L19.0338 12H19.3077L20.1157 13.0076ZM10.457 11.0852L10.875 10.1425H12.2447V11.8375H12.0312V12.9288H12.2447V13.8574H11.2604V12.9288H11.0467V11.8375H10.8935L10.4245 12.9288H10.6846L10.3269 13.8574H9.91833L9.54685 12.9334H9.29609L8.84567 11.8421H8.78065V12.9288H8.98961V13.8528H8.00517V12.9288H7.7962V11.8375H8.00517V10.1425H9.38432L9.80224 11.0852L10.118 11.8375H10.1459L10.457 11.0852ZM8.99426 11.5821V11.8375H9.11035L8.99426 11.5821ZM11.2697 11.5821L11.1535 11.8375H11.2697V11.5821Z" fill="#E92E88"/>
<path d="M22 12V9.13489C22 9.08388 21.9899 9.03339 21.9703 8.98632C21.9506 8.93926 21.9218 8.89655 21.8855 8.86071C21.8492 8.82486 21.8062 8.79657 21.7589 8.77747C21.7116 8.75837 21.661 8.74886 21.6099 8.74948H2.66404C2.5622 8.75068 2.46486 8.79167 2.39284 8.86369C2.32082 8.93571 2.27983 9.03304 2.27862 9.13489V12H2V12.9334H2.27862V14.8651C2.27861 14.9161 2.28873 14.9666 2.3084 15.0136C2.32805 15.0608 2.35686 15.1035 2.39314 15.1393C2.42943 15.1752 2.47246 15.2035 2.51976 15.2225C2.56707 15.2416 2.61768 15.2512 2.66869 15.2505H21.6099C21.7127 15.2505 21.8111 15.2101 21.8842 15.1379C21.9572 15.0658 21.9988 14.9677 22 14.8651V12.9288H21.7818V12H22ZM21.257 12.9241V14.5075H3.05875V12.9288H2.74298V12H3.0541V9.48317H21.257V12H21.0435V12.9288H21.2617V12.9241H21.257Z" fill="#E92E88"/>
</svg>

<svg xmlns="http://www.w3.org/2000/svg" width="24" height="24" fill="none" viewBox="0 0 24 24">
    <path fill="#E92E88" d="M7.295 12.929h-.26c-.103-.232-.256-.4-.502-.465.228-.055.567-.241.673-.464h.26a1.49 1.49 0 0 0-.171-1.407c-.232-.279-.627-.45-1.235-.45H4.137V12h-.306v.929h.306v.928h.929v-.928h.682c.298 0 .404.25.585.668l.112.256h1.221a15 15 0 0 1-.246-.613zm-2.23-1.858h.93c.2 0 .385.265.385.465S6.194 12 5.99 12h-.924zm10.732 1.858h.26l.153.371c.07.186.154.39.223.553h-1.226l-.111-.256c-.177-.417-.283-.668-.58-.668h-.627v.928h-.93v-.928h-.306V12h.307v-1.857h1.862c.803 0 1.5.413 1.486 1.263 0 .12-.028.483-.074.594h-.265c-.153.316-.358.385-.673.464.25.065.404.233.501.465m-1.04-1.858h-.868V12h.868c.2 0 .385-.265.385-.464 0-.2-.185-.465-.385-.465m5.359 1.937-.274-.08.673.93h-1.314l-.66-.93h.27l-.358-.478-.469.479h-.38v.928h-.93v-.928h.284V12h-.283v-1.857h.929v1.467l1.448-1.467h1.426l-1.574 1.625.13.232h.274zm-9.659-1.923.418-.943h1.37v1.696h-.214v1.09h.214v.93h-.985v-.93h-.213v-1.09h-.154l-.469 1.09h.26l-.357.93h-.409l-.371-.925h-.25l-.451-1.09H8.78v1.086h.209v.924h-.985v-.924h-.209v-1.091h.21v-1.695h1.378l.418.942.316.752h.028zm-1.463.497v.255h.116zm2.276 0-.117.255h.117z"/>
    <path fill="#E92E88" d="M22 12V9.135a.386.386 0 0 0-.39-.386H2.664a.39.39 0 0 0-.385.386V12H2v.933h.279v1.932a.385.385 0 0 0 .39.386h18.94a.39.39 0 0 0 .391-.386V12.93h-.218V12zm-.743.924v1.584H3.059v-1.58h-.316V12h.311V9.483h18.203V12h-.213v.929h.218v-.005z"/>
</svg>
